Origami/22x22/apps/com.github.davidmhewitt.torrential.svg

<svg width="22" height="22" version="1" xmlns="http://www.w3.org/2000/svg">
 <rect transform="matrix(0,-1,-1,0,0,0)" x="-21" y="-21" width="20" height="20" rx="1" ry="1" style="fill:#5aa9f0"/>
 <path d="m2 1c-0.554 0-1 0.446-1 1v0.5c0-0.554 0.446-1 1-1h18c0.554 0 1 0.446 1 1v-0.5c0-0.554-0.446-1-1-1z" style="fill:#ffffff;opacity:.2"/>
 <path d="m2 21.5c-0.554 0-1-0.446-1-1v-0.5c0 0.554 0.446 1 1 1h18c0.554 0 1-0.446 1-1v0.5c0 0.554-0.446 1-1 1z" style="opacity:.2"/>
 <path d="m9 13.540039h4v-8.520508c-0.07992 0.513761-0.651367 0.520508-0.651367 0.520508s-0.666016 3.21e-4 -0.666016-0.636719c0-0.637045-0.166992-0.863281-0.666992-0.863281s-0.666992 0.2262365-0.666992 0.863281c0 0.63704-0.666016 0.636719-0.666016 0.636719s-0.666992 8e-4 -0.666992-0.636719c0 0-0.01563 6.327303-0.01563 8.636719z" style="fill:#ffffff;opacity:.2"/>
 <path d="M 9.66667,7 C 9.66667,7 9,6.9995 9,7.63704 V 12 h 4 V 7.63704 C 13,7 12.333335,7 12.333335,7 c 0,0 -0.66667,0 -0.66667,0.63704 C 11.666665,8.274085 11.5,8.5 11,8.5 10.5,8.5 10.333335,8.274085 10.333335,7.63704 10.333335,7 9.66667,7 9.66667,7 Z" style="fill:#ffffff;opacity:.5"/>
 <path d="m11 10c-0.5 0-0.666992 0.227128-0.666992 0.867188 0 0.640055-0.666016 0.632812-0.666016 0.632812s-0.666992 0.0077-0.666992-0.632812v2.632812h-3l5 5 5-5h-3v-2.632812c0 0.640055-0.666992 0.632812-0.666992 0.632812s-0.666016 0.0072-0.666016-0.632812c0-0.64006-0.166992-0.867188-0.666992-0.867188z" style="opacity:.2"/>
 <path d="m11 9.5c-0.5 0-0.666992 0.227128-0.666992 0.867188 0 0.640055-0.666016 0.632812-0.666016 0.632812s-0.666992 0.007736-0.666992-0.632812v2.632812h-3l5 5 5-5h-3v-2.632812c0 0.640055-0.666992 0.632812-0.666992 0.632812s-0.666016 0.0072-0.666016-0.632812c0-0.64006-0.166992-0.867188-0.666992-0.867188z" style="fill:#ffffff"/>
</svg>

<svg xmlns="http://www.w3.org/2000/svg" width="22" height="22" version="1">
 <rect style="fill:#5aa9f0" width="20" height="20" x="-21" y="-21" rx="1" ry="1" transform="matrix(0,-1,-1,0,0,0)"/>
 <path style="opacity:0.2;fill:#ffffff" d="M 2,1 C 1.446,1 1,1.446 1,2 v 0.5 c 0,-0.554 0.446,-1 1,-1 h 18 c 0.554,0 1,0.446 1,1 V 2 C 21,1.446 20.554,1 20,1 Z"/>
 <path style="opacity:0.2" d="m 2,21.5 c -0.554,0 -1,-0.446 -1,-1 V 20 c 0,0.554 0.446,1 1,1 h 18 c 0.554,0 1,-0.446 1,-1 v 0.5 c 0,0.554 -0.446,1 -1,1 z"/>
 <path style="opacity:0.2;fill:#ffffff" d="m 9,13.540039 h 4 V 5.019531 c -0.07992,0.513761 -0.651367,0.520508 -0.651367,0.520508 0,0 -0.666016,3.21e-4 -0.666016,-0.636719 0,-0.637045 -0.166992,-0.863281 -0.666992,-0.863281 -0.5,0 -0.666992,0.2262365 -0.666992,0.863281 0,0.63704 -0.666016,0.636719 -0.666016,0.636719 0,0 -0.666992,8e-4 -0.666992,-0.636719 0,0 -0.01563,6.327303 -0.01563,8.636719 z"/>
 <path style="opacity:0.5;fill:#ffffff" d="M 9.66667,7 C 9.66667,7 9,6.9995 9,7.63704 V 12 h 4 V 7.63704 C 13,7 12.333335,7 12.333335,7 c 0,0 -0.66667,0 -0.66667,0.63704 C 11.666665,8.274085 11.5,8.5 11,8.5 10.5,8.5 10.333335,8.274085 10.333335,7.63704 10.333335,7 9.66667,7 9.66667,7 Z"/>
 <path style="opacity:0.2" d="m 11,10 c -0.5,0 -0.666992,0.227128 -0.666992,0.867188 C 10.333008,11.507243 9.666992,11.5 9.666992,11.5 9.666992,11.5 9,11.5077 9,10.867188 V 13.5 H 6 l 5,5 5,-5 H 13 V 10.867188 C 13,11.507243 12.333008,11.5 12.333008,11.5 c 0,0 -0.666016,0.0072 -0.666016,-0.632812 C 11.666992,10.227128 11.5,10 11,10 Z"/>
 <path style="fill:#ffffff" d="m 11,9.5 c -0.5,0 -0.666992,0.227128 -0.666992,0.867188 C 10.333008,11.007243 9.666992,11 9.666992,11 9.666992,11 9,11.007736 9,10.367188 V 13 H 6 l 5,5 5,-5 H 13 V 10.367188 C 13,11.007243 12.333008,11 12.333008,11 c 0,0 -0.666016,0.0072 -0.666016,-0.632812 C 11.666992,9.727128 11.5,9.5 11,9.5 Z"/>
</svg>
